!!!SOCIAL_FUNCTION: drunken-man dance songs
!!!PDT:	1943
!!!LING_GROUP: Muskogean
!!!LANG: Non-Tone
Specific Region: Oklahoma, California, Mississippi, Louisiana, Texas, Alabama
!!!REG: Southeast
!!!COM: Anon.
!!!OTL: Drunken-man Dance Song (d)
!!!ODT: <1933//
!!!MPN: Lysander Tubby
!!!MLC: Philadelphia, Mississippi, United States of America
!! Song was recorded in January 1933.
!!!AGN: monody
!!!AMT: simple duple
!!!RWG: Transcribed pitches, durations, and meters are only approximate.
**kern
*ICvox
*Imale
*clefF4
*k[b-e-a-d-]
*M2/4
*MM96
*[A,B,1st Ending,B,2nd Ending]
*>A
=1-
8F
8F
8.A-
16F
=2
4A-
8A-
8F
=3
4A-
8A-
8F
=4
4F
4F
=5
8F
8F
8.A-
16F
=6
4A-
8A-
8r
=7
4A-
8F
8F
=8
4F
4F
*>B
=!|:9
8F
8c
4c
=10
4B-
8A-
8F
=11
4A-
8A-
8r
=12
8A-
8A-
8F
8F
=13
4F
4F
=14
4B-
8A-
8F
=15
4A-
8A-
8r
=16
8A-
8A-
8F
8F
=17
4F
4F
=18
8F
8c
4c
=19
4A-
8c
8c
=20
4.B-
8r
=21
4A-
8F
8F
=22
4F
4F
=23
8c
8c
4c
=24
4B-
8A-
8F
=25
4A-
8A-
8r
=26
4A-
8F
8F
=27
4F
8F
8r
*>1st Ending
=28
4F
8A-
8F
=29
4A-
8A-
8r
=30
4A-
8F
8F
=31
4F
4F
*>2nd Ending
=:|!32
4B-
8A-
8F
=33
4A-
8A-
8r
=34
4A-
8F
8F
=35
4F
8F
8r
==
*-
!!!CNT: Choctaw
!!!TXO: Choctaw
!!!OCY: United States
!!!OCL: Frances Densmore
!!!YOR: Frances Densmore, "Choctaw Music"
!!!YOR: Bulletin 136, page 146, No. 24
!!!PPR: Smithsonian Institution, Bureau of American Ethnology
!!!PPR: Government Printing Office
!!!PDT: 1943
!!!PPP: Washington, DC, United States of America
!!!YEC: Electronic Copyright 2000 David Huron
!!!YER: August 2000
!!!YEN: United States of America
!!!ENC: David Huron
!!!RDT: August 27, 2000
!!!EEV: Release 1.0
!!!AIN: vox
